X: 42
T:Anna Bolena. JMT.042
M:4/4
L:1/8
Q:135
C:Unedited!
S:J.Moore,Tyneside,1841.(30)
R:March
O:England
A:Northumbria
N:Bar lines all over the place ! Very suitable for the village band to
N:play at the garden fete for visiting pompousness's
H:184
Z:vmp.Chris Partington
K:C
ezcz|G3(c/d/) ezcz|G3(A/B/) czd2z|ef2|^cde2B|!
(c2G)zezcz|G3(c/d/) ezcz|(G3A/B/) czez|dg^fe d^c=cA|G2z2|!
|"cres."G2G2|(d3^c/)d/(e3^d/)e/|(f2G)zG2G2|\
c>GE>G c>ea>g|(g2d)z"soft"G2G2|!
d3^c/d/"cres"e3^d/e/|(f2G)zG2G2|c>Bc>d e>de>c|\
"hold"g2z2ez"*"cz|G3(c/d/) "*"ez"*"ez|!
(e2A)zABcd e(a2g) "pia"d(a2g)|g2ezABcd|(ea2g) da2g|c2z2||
W:These 3 notes are crotchets in the MS
